X:1
T:Mitten Wir im Leben Sind, irr.
T:Mitten Wir im Leben Sind, irr.
T:Based on Media Vita, circa 1200
T:Public Domain Courtesy of the Cyber Hymnal™
C:Based on Media Vita, circa 1200
Z:Public Domain
Z:Courtesy of the Cyber Hymnal™
%%score ( 1 2 ) ( 3 4 )
L:1/8
Q:1/4=115
M:4/4
K:C
V:1 treble 
V:2 treble 
V:3 bass 
V:4 bass 
V:1
 [EG]2 [DG]2 [CA]2 [DB]2 | [Ec]2 [Ec]2 ([EB]2 [DA]2) | [GB]2 [Gc]2 [Fd]2 [CA]2 | %3
 ([EG]2 F2) [B,E]4 | [EG]2 [DG]2 [CA]2 [DB]2 | [Ec]2 [Ec]2 ([EB]2 [CA]2) | %6
 [GB]2 [Gc]2 [Fd]2 [CA]2 | ([EG]2 F2) [B,E]2 [B,D]2 | [CE]2 [CE]2 [DG]3 [DF] | (E2 z C2) C2 x3 | %10
 [DG]2 [CG]2 [CA]2 [DB]2 | [Ec]2 [Ec]2 ([EB]2 [CA]2) | [GB]2 [Gc]2 [Fd]2 [CA]2 | [EG]2 F2 [B,E]4 | %14
 [EA]4 [DG]2 [CE]2 | [CF]2 [DG]2 [CE]4 | [EA]4 [DG]2 [CE]2 | [CF]2 [DG]2 [CE]4 | %18
 [EA]2 [EG]2 [CA]2 [DB]2 | [Ec]4 [EB]2 [CA]2 | ([EG]2 [DF]2) [^CE]2 D2 | [EA]4 [DG]2 F2 | [B,E]8 | %23
 [EA]2 [EG]2 [^FA]2 [GB]2 | ([Gc]2 [^FA]2) G4 | [Ec]2 [EB]2 [Fd]2 [CA]2 | [EG]2 [DF]2 [^CE]4 | %27
 D2 [EA]2 [DG]2 F2 | [B,E]8 |] %29
V:2
 x8 | x8 | x8 | x2 (DC) x4 | x8 | x8 | x8 | x2 (DC) x4 | x8 | C3 (D2 B,) C2 C2 | x8 | x8 | x8 | %13
 x2 (DC) x4 | x8 | x8 | x8 | x8 | x8 | x8 | x6 D2 | x6 (DC) | x8 | x8 | x4 G4 | x8 | x8 | %27
 D2 x2 (DC) x2 | x8 |] %29
V:3
 [C,C]2 [B,,G,]2 [A,,E,]2 [G,,G,]2 | [C,G,]2 [A,,A,]2 ([E,^G,]2 A,2) | %2
 [G,D]2 [E,C]2 [D,A,]2 [F,A,]2 | ([C,C]2 [D,A,]2) [E,^G,]4 | [C,C]2 [B,,G,]2 [A,,E,]2 [G,,G,]2 | %5
 [C,G,]2 [A,,A,]2 ([E,^G,]2 A,2) | [G,D]2 [E,C]2 [D,A,]2 [F,A,]2 | ([C,C]2 [D,A,]2) [E,^G,]2 G,2 | %8
 [C,G,]2 [A,,A,]2 [G,,B,]3 [D,A,] | G,4 [C,E,]2 [C,E,]2 x2 | [B,,G,]2 [C,E,]2 [A,,E,]2 [G,,G,]2 | %11
 [C,G,]2 [A,,A,]2 ([E,^G,]2 A,2) | [G,D]2 [E,C]2 [D,A,]2 [F,A,]2 | [C,C]2 [D,A,]2 [E,^G,]4 | %14
 [A,,C]4 [B,,B,]2 [C,G,]2 | [A,,A,]2 [G,,B,]2 [C,G,]4 | [A,,C]4 [B,,B,]2 [C,G,]2 | %17
 [A,,A,]2 [G,,B,]2 [C,G,]4 | [A,,C]2 [E,B,]2 [F,A,]2 [D,F,]2 | [C,G,]4 [E,G,]2 [F,A,]2 | %20
 ([C,C]2 [D,A,]2) [A,,A,]2 [F,A,]2 | [A,,C]4 [B,,B,]2 [D,A,]2 | [E,^G,]8 | %23
 [A,,C]2 [E,B,]2 [A,C]2 [G,D]2 | ([C,E]2 [D,D]2) [G,,B,]4 | [A,,A,]2 [E,G,]2 [D,A,]2 [F,A,]2 | %26
 [C,C]2 [D,A,]2 [A,,A,]4 | [D,F,]2 [A,,C]2 [B,,B,]2 [D,A,]2 | [E,^G,]8 |] %29
V:4
 x8 | x6 A,2 | x8 | x8 | x8 | x6 A,2 | x8 | x6 ^G,2 | x8 | (E,2 G,2) x6 | x8 | x6 A,2 | x8 | x8 | %14
 x8 | x8 | x8 | x8 | x8 | x8 | x8 | x8 | x8 | x8 | x8 | x8 | x8 | x8 | x8 |] %29

